packages/app/src/assets/warn.svg

<svg width="15" height="15" viewBox="0 0 15 15" fill="currentColor" xmlns="http://www.w3.org/2000/svg" focusable="false">
	<path d="M7.5 14.5C11.366 14.5 14.5 11.366 14.5 7.5C14.5 3.63401 11.366 0.5 7.5 0.5C3.63401 0.5 0.5 3.63401 0.5 7.5C0.5 11.366 3.63401 14.5 7.5 14.5Z" stroke="#595959" />
	<path d="M7.88005 9.73395C7.7937 9.70204 7.70208 9.68677 7.61005 9.68895C7.51313 9.68731 7.41699 9.7064 7.32805 9.74495C7.24688 9.77424 7.17315 9.82101 7.11205 9.88195V9.88195L7.11005 9.88395C7.05528 9.94753 7.01289 10.0208 6.98505 10.1V10.1L6.98305 10.104C6.95987 10.1941 6.94877 10.2869 6.95005 10.38C6.95005 10.483 6.96505 10.576 6.99505 10.66C7.02505 10.742 7.06705 10.814 7.12005 10.875L7.12505 10.88C7.18505 10.933 7.25305 10.974 7.32805 11.004H7.33005C7.41305 11.035 7.50705 11.05 7.61005 11.05C7.70208 11.0521 7.7937 11.0369 7.88005 11.005V9.73395ZM7.88005 9.73495C7.959 9.76236 8.02983 9.80911 8.08605 9.87095C8.14905 9.92695 8.19405 10.001 8.22405 10.091C8.25564 10.184 8.27086 10.2817 8.26905 10.38C8.27002 10.4719 8.25479 10.5633 8.22405 10.65C8.19508 10.731 8.14865 10.8048 8.08805 10.866C8.03162 10.9292 7.96004 10.977 7.88005 11.005V9.73495ZM7.88005 9.73495L7.87905 9.73395L7.86205 9.78095L7.88005 9.73395V9.73495ZM7.88005 11.005L7.86205 10.958L7.87905 11.005H7.88005ZM7.14705 3.94995H7.09705V3.99995L7.16005 9.09795V9.14995L7.21305 9.14795L8.02305 9.10495L8.06905 9.10295V9.05595L8.14305 4.00095V3.94995H7.14705V3.94995Z" fill="currentColor" stroke="#595959" stroke-width="0.1" />
</svg>

<svg focusable="false" viewBox="0 0 15 15" fill="none" xmlns="http://www.w3.org/2000/svg"><circle cx="7.5" cy="7.5" r="7" stroke="#595959"/><path d="M7.88 9.734a.729.729 0 00-.27-.045.68.68 0 00-.282.056.589.589 0 00-.216.137h0l-.002.002a.673.673 0 00-.125.216h0l-.002.004a1.05 1.05 0 00-.033.276c0 .103.015.196.045.28.03.082.072.154.125.215h0l.005.005c.06.053.128.094.203.124h.002c.083.031.177.046.28.046a.729.729 0 00.27-.045m0-1.27a.5.5 0 01.206.136c.063.056.108.13.138.22a.85.85 0 01.045.289.783.783 0 01-.045.27.588.588 0 01-.136.216.5.5 0 01-.208.139m0-1.27l-.001-.001-.017.047.018-.047s0 0 0 0zm0 1.27s0 0 0 0l-.018-.047.017.047s0 0 0 0zM7.147 3.95h-.05V4l.063 5.098v.052l.053-.002.81-.043.046-.002v-.047l.074-5.055V3.95h-.996z" fill="#595959" stroke="#595959" stroke-width=".1"/></svg>
